!!!COA:	Josquin des Prez
!!!CDT:	~1450-1521/08/27
!!!OPR:	Missa Mater patris
!!!ONM:	1
!!!OTL:	Kyrie
!!!AGN:	Mass; Kyrie
!!!SCT:	NJE 10.1
!!!SCA:	New Josquin Edition 10.1
!!!voices: 4
!!!voices-OPR: 4(-5)
**kern	**kern	**kern	**kern
*staff4	*staff3	*staff2	*staff1
*Ivox	*Ivox	*Ivox	*Ivox
*I"Bassus	*I"Tenor	*I"Altus1	*I"Altus2
*I'B	*I'T	*I'A1	*I'A2
*>[A,B,C]	*>[A,B,C]	*>[A,B,C]	*>[A,B,C]
*>Kyrie1[A]	*>Kyrie1[A]	*>Kyrie1[A]	*>Kyrie1[A]
*>Christe[B]	*>Christe[B]	*>Christe[B]	*>Christe[B]
*>Kyrie2[C]	*>Kyrie2[C]	*>Kyrie2[C]	*>Kyrie2[C]
*clefF4	*clefGv2	*clefGv2	*clefGv2
*>A	*>A	*>A	*>A
*k[b-]	*k[b-]	*k[b-]	*k[b-]
*M2/1	*M2/1	*M2/1	*M2/1
*met(C|)	*met(C|)	*met(C|)	*met(C|)
=1-	=1-	=1-	=1-
!!section: Kyrie I
!!!OMD: Kyrie I
0G	0r	0r	0r
=2	=2	=2	=2
1G	0r	0r	0r
1F	.	.	.
=3	=3	=3	=3
1.B-	0r	0G	0r
2G\	.	.	.
=4	=4	=4	=4
1B-	0r	1G	0r
1c	.	1F	.
=5	=5	=5	=5
1d	0r	1.B-	0r
2G\	.	.	.
[2d\	.	2G/	.
=6	=6	=6	=6
2d\]	0r	1B-	0r
4c\	.	.	.
4B-\	.	.	.
1A	.	1c	.
=7	=7	=7	=7
2G\	0r	1d	0r
2.d\	.	.	.
.	.	2G/	.
4c\	.	.	.
[2B-\	.	[2d\	.
=8	=8	=8	=8
2B-\]	0r	2d\]	0r
4A\	.	4c\	.
4G\	.	4B-\	.
2F\	.	1A	.
2c\	.	.	.
=9	=9	=9	=9
2.B-\	0r	2G/	0r
.	.	2.d\	.
4c\	.	.	.
4d\	.	.	.
4e-i\	.	4c\	.
[2d\	.	[2B-\	.
=10	=10	=10	=10
2d\]	0r	2B-\]	0r
4c\	.	4A/	.
4B-\	.	4G/	.
1A	.	2F/	.
.	.	2c\	.
=11	=11	=11	=11
2.G\	0r	2.B-\	0r
4A\	.	4c\	.
4B-\	.	4d\	.
4c\	.	4e-i\	.
[2B-\	.	[2d\	.
=12	=12	=12	=12
2B-\]	0r	2d\]	0r
4A\	.	4c\	.
4G\	.	4B-\	.
4F#i\	.	1A	.
4G\	.	.	.
4A\	.	.	.
4F#i\	.	.	.
=13	=13	=13	=13
0G	0r	1G	0r
.	.	1r	.
=14	=14	=14	=14
1r	0r	0B-	0d
2.D\	.	.	.
4E\	.	.	.
=15	=15	=15	=15
1F	0r	1A	1c
1BB-	.	1d	1f
=16	=16	=16	=16
2C/	0r	2c\	2e\
2GG/	.	1B-	1d
2BB-/	.	.	.
2C/	.	4A/	4c\
.	.	4G/	4B-\
=17	=17	=17	=17
1D	0r	1F	1A
1r	.	1r	1r
=18	=18	=18	=18
[0BB-	0F	0B-	0d
=19	=19	=19	=19
1BB-]	1D	1G	1B-
1BB-	1D	1G	1B-
=20	=20	=20	=20
1AA	1E	1A	1c
1D	1F	1B-	1d
=21	=21	=21	=21
1C	1.G	1.c	1.e-i
[1C	.	.	.
.	2E/	2A/	2c\
=22	=22	=22	=22
2C/]	1E	1A	1c
2AA/	.	.	.
1AA	1r	2r	1r
.	.	2A/	.
=23	=23	=23	=23
2r	0r	2B-\	0r
2AA/	.	2c\	.
2BB-/	.	2d\	.
2C/	.	4G/	.
.	.	4A/	.
=24	=24	=24	=24
2D\	0r	4B-\	0r
.	.	4c\	.
4GG/	.	1d	.
4AA/	.	.	.
4BB-/	.	.	.
4C/	.	.	.
4D\	.	4c\	.
4E\	.	4B-\	.
=25	=25	=25	=25
2F\	0r	2A/	0r
1G	.	2G/	.
.	.	1A	.
2F#i\	.	.	.
=26	=26	=26	=26
0G	0r	1G	0r
.	.	1r	.
=27	=27	=27	=27
1.GG	0r	0G	0B-
2AA/	.	.	.
=28	=28	=28	=28
2BB-/	0r	1G	1B-
2C/	.	.	.
1D	.	1F	1A
=29	=29	=29	=29
2GG/	0r	1.B-	1.d
4G\	.	.	.
4F\	.	.	.
4G\	.	.	.
4A\	.	.	.
[2B-\	.	2G/	2B-\
=30	=30	=30	=30
4B-\]	1r	1B-	1d
4A\	.	.	.
4G\	.	.	.
4F\	.	.	.
1E	1G	1c	1e
=31	=31	=31	=31
[0D	1.A	[0dl	[0fl
.	2B-\	.	.
=32	=32	=32	=32
1D]	2A/	0d_	0f_
.	1B-	.	.
2.BB-/	.	.	.
.	4A/	.	.
4C/	4G/	.	.
=33	=33	=33	=33
1D	1F	0d_	0f_
2.BB-/	1B-	.	.
4C/	.	.	.
=34	=34	=34	=34
0Dl	0Al	0d]	0f]
!!LO:LB:i:g=z
=35||	=35||	=35||	=35||
*>B	*>B	*>B	*>B
!!section: Christe
!!!OMD: Christe
*M2/1	*M2/1	*M2/1	*M2/1
*met(C|)	*met(C|)	*met(C|)	*met(C|)
2.D\	0r	[0d	0r
4E\	.	.	.
2F\	.	.	.
2G\	.	.	.
=36	=36	=36	=36
4GG/	0r	1d]	0r
4FF/	.	.	.
4GG/	.	.	.
4AA/	.	.	.
4BB-/	.	1d	.
4AA/	.	.	.
4BB-/	.	.	.
4C/	.	.	.
=37	=37	=37	=37
4D\	0r	2.d\	0r
4C/	.	.	.
4D\	.	.	.
4E\	.	4c\	.
4F\	.	2d\	.
4G\	.	.	.
[2A\	.	[2c\	.
=38	=38	=38	=38
4A\]	0r	4c\]	0r
4G\	.	4B-\	.
1G	.	4A/	.
.	.	4G/	.
.	.	1A	.
2F#i\	.	.	.
=39	=39	=39	=39
1G	0r	1G	0r
[1d	.	2D/	.
.	.	2G/	.
=40	=40	=40	=40
1d]	0r	2F/	0r
.	.	2.G/	.
1d	.	.	.
.	.	4F/	.
.	.	4G/	.
.	.	4A/	.
=41	=41	=41	=41
2.d\	0r	4B-\	0r
.	.	4c\	.
.	.	4d\	.
4c\	.	4e\	.
2d\	.	4f\	.
.	.	4g\	.
[2c\	.	[2a\	.
=42	=42	=42	=42
4c\]	0r	4a\]	0r
4B-\	.	4g\	.
4A\	.	1g	.
4G\	.	.	.
1A	.	.	.
.	.	2f#i\	.
=43	=43	=43	=43
1G	1r	1g	1r
1E	1G	1c	1e
=44	=44	=44	=44
1D	1A	1d	1f
1G	1B-	1e	1g
=45	=45	=45	=45
1.F	1c	1f	1a
.	1A	1d	1f
2D\	.	.	.
=46	=46	=46	=46
2G\	0B-	0e	0g
2E\	.	.	.
1G	.	.	.
=47	=47	=47	=47
[0D	0A	0d	0f
=48	=48	=48	=48
1D]	0r	2r	0r
.	.	1d	.
2r	.	.	.
2G\	.	2B-\	.
=49	=49	=49	=49
2E\	0r	2c\	0r
2F\	.	2.d\	.
2.G\	.	.	.
.	.	4c\	.
.	.	4B-\	.
4F\	.	4A/	.
=50	=50	=50	=50
4E\	0r	2G/	0r
4D\	.	.	.
2C/	.	2A/	.
2D\	.	2B-\	.
2E\	.	[2G/	.
=51	=51	=51	=51
1C	0r	2G/]	0r
.	.	2.c\	.
2.F\	.	.	.
.	.	4B-\	.
.	.	4A/	.
4E\	.	4G/	.
=52	=52	=52	=52
4D\	0r	2F/	0r
4C/	.	.	.
2BB-/	.	2G/	.
2C/	.	2A/	.
2D\	.	[2F/	.
=53	=53	=53	=53
1BB-	0r	2F/]	0r
.	.	2G/	.
2C/	.	2A/	.
2D\	.	[2B-\	.
=54	=54	=54	=54
1GG	0r	4B-\]	0r
.	.	4A/	.
.	.	1G	.
1AA	.	.	.
.	.	2F#i/	.
=55	=55	=55	=55
1GG	0r	0G	0r
1G	.	.	.
=56	=56	=56	=56
1C	1r	1r	1r
1E	1G	1c	1e
=57	=57	=57	=57
1D	1A	1d	1f
1G	1B-	1e	1g
=58	=58	=58	=58
1.F	1c	1f	1a
.	1A	1d	1f
2D\	.	.	.
=59	=59	=59	=59
2G\	0B-	0e	0g
2E\	.	.	.
1G	.	.	.
=60	=60	=60	=60
0Dl	0Al	0dl	0fl
!!LO:LB:i:g=z
=61||	=61||	=61||	=61||
*>C	*>C	*>C	*>C
!!section: Kyrie II
!!!OMD: Kyrie II
*M2/1	*M2/1	*M2/1	*M2/1
*met(C|)	*met(C|)	*met(C|)	*met(C|)
1.G	0r	0d	0r
2F\	.	.	.
=62	=62	=62	=62
2E\	0r	2c\	0r
1G	.	2B-\	.
.	.	1d	.
2F\	.	.	.
=63	=63	=63	=63
2E\	0r	2c\	0r
1G	.	2B-\	.
.	.	1d	.
2F\	.	.	.
=64	=64	=64	=64
2E\	0r	2c\	0r
1G	.	2B-\	.
.	.	1d	.
2F\	.	.	.
=65	=65	=65	=65
2E\	0r	2c\	0r
2.D\	.	2B-\	.
.	.	2.A/	.
4E\	.	.	.
4F\	.	.	.
4G\	.	4B-\	.
=66	=66	=66	=66
2A\	0r	2c\	0r
4D\	.	1d	.
4E\	.	.	.
4F\	.	.	.
4G\	.	.	.
[2A\	.	2c\	.
=67	=67	=67	=67
4A\]	0r	2B-\	0r
4G\	.	.	.
1G	.	2G/	.
.	.	1A	.
2F#i\	.	.	.
=68	=68	=68	=68
0G	0r	1G	1r
.	.	[1B-	[1d
=69	=69	=69	=69
2r	0r	2B-\]	2d\]
2G\	.	4A/	4c\
.	.	4G/	4B-\
2F\	.	2A/	2c\
2G\	.	2G/	2B-\
=70	=70	=70	=70
2.C/	0r	1c	1e-i
4BB-/	.	.	.
2GG/	.	2B-\	2d\
[2AA/	.	[2A/	[2c\
=71	=71	=71	=71
2AA/]	0r	2A/]	2c\]
2BB-/	.	4G/	4B-\
.	.	4F/	4A/
2C/	.	2E/	2G/
2D\	.	2D/	2F/
=72	=72	=72	=72
1GG	0r	4E/	4G/
.	.	4D/	4F/
.	.	1G	1B-
1D	.	.	.
.	.	2F#i/	2A/
=73	=73	=73	=73
1r	0r	1G	1B-
1GG	.	1r	1r
=74	=74	=74	=74
1BB-	1D	1G	1B-
1AA	1E	1A	1c
=75	=75	=75	=75
1D	1F	1B-	1d
[1C	[1G	[1c	[1e-i
=76	=76	=76	=76
2C/]	2G/]	2c\]	2e-\]
2D\	2F/	2B-\	2d\
1GG	1D	1G	1B-
=77	=77	=77	=77
0C	0E	0A	0c
=78	=78	=78	=78
*M3/1	*M3/1	*M3/1	*M3/1
*met(3)	*met()	*met()	*met()
!	!LO:N:vis=1	!LO:N:vis=1	!LO:N:vis=1
0GG	1.D	1.G	1.B-
!	!LO:N:vis=1	!LO:N:vis=1	!LO:N:vis=1
.	1.r	1.r	1.r
1GG	.	.	.
=79	=79	=79	=79
*M3/1	*M3/1	*M3/1	*M3/1
*met()	*met(3)	*met(3)	*met(3)
0BB-	0D	0G	0B-
1AA	1E	1A	1c
=80	=80	=80	=80
1D	1F	1B-	1d
1.C	1.G	1.c	1.e-i
2D\	2F/	2B-\	2d\
=81	=81	=81	=81
1GG	1D	1G	1B-
0C	0E	0A	0c
=82	=82	=82	=82
0.GGl	0.Dl	0.Gl	0.B-l
==	==	==	==
*-	*-	*-	*-
!!!RDF**kern: l=long note in original notation
!!!RDF**kern: i=editorial accidental
!!!ENC: Will Watson 16/08/11
!!!END: 2011/08/16/
!!!EED:	Jesse Rodin
!!!EEV:	2011/10/27/
!!attribution-level@Jos: 3 (tricky)
!!!ONB:	Translated from MusicXML and edited on 2011/10/27/ by Craig Sapp
!!muse2ps: T^@{OPR}^u^@{ONM}{. }@{OTL}^C^@{COA}?\n@{SCT}^i2I100v85,85,85,150Q16
